X:85
T:Jay's Frolick. JJo8.085
%%VWML:JohnsonVol8-2184-p43-0
F:http://www.vwml.org/record/JohnsonVol8/2184/p43
Z:Transcribed by Simon Furey and Lewis Jones
Z:vmp.Simon Wilson 2013 www.village-music-project.org.uk
Z:Dance added by John Chambers 2017
M:6/8
L:1/8
%Q:3/8=120
K:C
|:\
{d}cBc {d}cBc | cag fed | cAf dBg | eca fdB |\
{d}cBc {d}cBc | cag fed | e^fg Da^f | {f}g3G3 :|
|:\
{a}g^fg {a}g^fg | (ga)(_b b)ag | a=fd gec | fdc BAG |\
cAc BGB | ceg Bdg | Afe dcB | {B}c3C3 :|
W: Lead thro' the 2d Cu. Cast up and cast off .|
W:Lead thro the 3d Cu. cast up and foot it :| Man
W:turn 3 at Bottom, Wo. 3 at Top at the same
W:Time :||. Wo. at Bottom, and Man at Top :||:
W:foot it Corners and turn :|| hands 6 round :||.
W:Right hands and Left at top :||:
W:
T:Black Boy. JJo8.086, The
B:J.Johnson Choice Collection Vol 8 1758
Z:vmp.Simon Wilson 2013 www.village-music-project.org.uk
Z:Dance added by John Chambers 2017
M:2/4
L:1/8
%Q:1/4=100
K:A
|:\
A2c/B/A/G/ | Acea | gbed | cA2B |\
ce^df | eg2e | fa g/f/e/d/ | e2E2 :|
|:\
e=g2f | f/e/d/c/d2 | Bd2f | e/d/c/B/c2 |\
Ac2e | d/c/B/A/ GB | Ed c/B/A/G/ | A2A,2 :|
W: Swing Right hands round &
W:cast off one Cu .| Left hands
W:back again :| Cross over and
W:turn :||. Right hands and Left :||:
W:foot it both Corners and turn :||:
W:Lead out both Sides and turn :||:
W:
